X: 1
T: Connemara
M: 3/4
L: 1/8
R: mazurka
K: Dmaj
|: B |
A>F (3FFF d>A | B<d A>F G>B | A>F (3FFF d>A | B>d A<F D :|
|: g |
f>d d>c d>=f | e>=c c<B c>g |1 f>d d>c d>A | B>d A>F G> :|
2 f>d e<c d>A | (3Bcd e>c d ||
